Simply-Purple-Circles/scalable/status/dialog-warning.svg

<svg xmlns="http://www.w3.org/2000/svg" width="24" height="24" version="1"><path d="M12 .16A11.84 11.84 0 0 0 .16 12 11.84 11.84 0 0 0 12 23.84 11.84 11.84 0 0 0 23.84 12 11.84 11.84 0 0 0 12 .16zm-.11 1.76L3.1 17.09a10.18 10.18 0 0 1-1.32-4.99 10.18 10.18 0 0 1 10.1-10.18zm.16 0a10.18 10.18 0 0 1 10.1 10.18 10.18 10.18 0 0 1-1.32 5L12.05 1.92zm-.25 2.71a.9.9 0 0 1 .4.02c.56.13.83.75.73 1.27-.2 2.2-.46 4.4-.62 6.6h-.64c-.2-2.3-.47-4.57-.7-6.85l.01-.22a.99.99 0 0 1 .82-.82zm.13 9.28c.39 0 .78.2.96.56.32.56 0 1.34-.63 1.5-.64.21-1.39-.33-1.36-1a1.04 1.04 0 0 1 .4-.82.94.94 0 0 1 .63-.24zm-8.69 3.42h17.45a10.18 10.18 0 0 1-8.72 4.96 10.18 10.18 0 0 1-8.73-4.96z" fill="#963996"/></svg>

<?xml version="1.0" encoding="UTF-8" standalone="no"?>
<svg
   xmlns:dc="http://purl.org/dc/elements/1.1/"
   xmlns:cc="http://creativecommons.org/ns#"
   xmlns:rdf="http://www.w3.org/1999/02/22-rdf-syntax-ns#"
   xmlns:svg="http://www.w3.org/2000/svg"
   xmlns="http://www.w3.org/2000/svg"
   xmlns:sodipodi="http://sodipodi.sourceforge.net/DTD/sodipodi-0.dtd"
   xmlns:inkscape="http://www.inkscape.org/namespaces/inkscape"
   width="24"
   height="24"
   version="1"
   id="svg4"
   sodipodi:docname="dialog-warning.svg"
   inkscape:version="0.92.4 (5da689c313, 2019-01-14)">
  <metadata
     id="metadata10">
    <rdf:RDF>
      <cc:Work
         rdf:about="">
        <dc:format>image/svg+xml</dc:format>
        <dc:type
           rdf:resource="http://purl.org/dc/dcmitype/StillImage" />
        <dc:title></dc:title>
      </cc:Work>
    </rdf:RDF>
  </metadata>
  <defs
     id="defs8" />
  <sodipodi:namedview
     pagecolor="#ffffff"
     bordercolor="#666666"
     borderopacity="1"
     objecttolerance="10"
     gridtolerance="10"
     guidetolerance="10"
     inkscape:pageopacity="0"
     inkscape:pageshadow="2"
     inkscape:window-width="1085"
     inkscape:window-height="480"
     id="namedview6"
     showgrid="false"
     inkscape:zoom="9.8333333"
     inkscape:cx="1.0677966"
     inkscape:cy="12"
     inkscape:window-x="0"
     inkscape:window-y="25"
     inkscape:window-maximized="0"
     inkscape:current-layer="svg4" />
  <path
     d="M 12,0.16 A 11.84,11.84 0 0 0 0.16,12 11.84,11.84 0 0 0 12,23.84 11.84,11.84 0 0 0 23.84,12 11.84,11.84 0 0 0 12,0.16 Z M 11.89,1.92 3.1,17.09 A 10.18,10.18 0 0 1 1.78,12.1 10.18,10.18 0 0 1 11.88,1.92 Z m 0.16,0 a 10.18,10.18 0 0 1 10.1,10.18 10.18,10.18 0 0 1 -1.32,5 z M 11.8,4.63 a 0.9,0.9 0 0 1 0.4,0.02 c 0.56,0.13 0.83,0.75 0.73,1.27 -0.2,2.2 -0.46,4.4 -0.62,6.6 H 11.67 C 11.47,10.22 11.2,7.95 10.97,5.67 L 10.98,5.45 A 0.99,0.99 0 0 1 11.8,4.63 Z m 0.13,9.28 c 0.39,0 0.78,0.2 0.96,0.56 0.32,0.56 0,1.34 -0.63,1.5 -0.64,0.21 -1.39,-0.33 -1.36,-1 a 1.04,1.04 0 0 1 0.4,-0.82 0.94,0.94 0 0 1 0.63,-0.24 z m -8.69,3.42 h 17.45 a 10.18,10.18 0 0 1 -8.72,4.96 10.18,10.18 0 0 1 -8.73,-4.96 z"
     id="path2"
     inkscape:connector-curvature="0"
     style="fill:#963996" />
</svg>
